!!!SOCIAL_FUNCTION:	songs of war
!!!PDT:	1918

Specific Region: Dakotas, Minnesota, Montana, Nebraska
!!!REG: Dakotas and Montana
!!!LING_GROUP: Siouan
!!!LANG: Tone
!!!OTL@ENG: I Look for Him in Vain
!!!ONM: No. 152
**kern
*Imale
*clefF4
*k[b-e-a-d-g-]
*M3/4
*MM92
8B-
8B-
=1
8f
8f
2f
=2||
*M2/4
8e-
8f
16f
8.e-
=3
(16e-
8.d-)
(16d-
8.B-)
=4
8d-
8d-
8B-
8B-
=5||
*M3/4
4B-
(8B-
8F)
4r
=6
8B-
8B-
(4B-
16B-
16A-
16B-
16A-)
=7||
*M2/4
8B-
8B-
8B-
8A-
=8
8A-
8F
4D-
=9||
*M3/4
8F
8E-
8E-
8F
8E-
8D-
=10
8BB-
8BB-
4.BB-
8BB-
=11
2.BB-
==
*-
!!!CNT: Native American -- Sioux
!!!MRD: 1911/07//-1914///
!!!OCL: Frances Densmore
!!!YOR1: Teton Sioux Music, Bulletin 61,
!!!YOR2: Bureau of American Ethnology, Smithsonian Institution
!!!PPR: Government Printing Office
!!!PPP: Washington, D.C.
!!!PDT: 1918///
!!!ENC: Craig Stuart Sapp
!!!END: 2002/03/25/
!!!EEV: 2002/03/31/
!!!AGN: War Song/Song of a Typical War Expedition
!!!MPN@@SIO: Waha'chungka-nong'pa
!!!MPN@ENG: Two Shields
!!!TXO: Teton Sioux
!!!MLC: Standing Rock Reservation, South Dakota, United States of America
!!!ARL: 45.9/-100.7#
!!!catalog: Catalogue No. 530
!!!PPG: 372
!!!EFL: 157/245
!!!VTS: 2798003389
